sprites/actors/ghost_clyde/clyde_down.svg

<?xml version="1.0" encoding="UTF-8" standalone="no"?>
<!-- Created with Inkscape (http://www.inkscape.org/) -->

<svg
   width="100"
   height="100"
   viewBox="0 0 100 100"
   version="1.1"
   id="svg5"
   inkscape:version="1.2 (dc2aeda, 2022-05-15)"
   sodipodi:docname="clyde_down.svg"
   xmlns:inkscape="http://www.inkscape.org/namespaces/inkscape"
   xmlns:sodipodi="http://sodipodi.sourceforge.net/DTD/sodipodi-0.dtd"
   xmlns="http://www.w3.org/2000/svg"
   xmlns:svg="http://www.w3.org/2000/svg">
  <sodipodi:namedview
     id="namedview7"
     pagecolor="#ffffff"
     bordercolor="#000000"
     borderopacity="0.25"
     inkscape:showpageshadow="2"
     inkscape:pageopacity="0.0"
     inkscape:pagecheckerboard="0"
     inkscape:deskcolor="#d1d1d1"
     inkscape:document-units="px"
     showgrid="true"
     inkscape:zoom="5.5731762"
     inkscape:cx="46.203456"
     inkscape:cy="54.99557"
     inkscape:window-width="1920"
     inkscape:window-height="1016"
     inkscape:window-x="0"
     inkscape:window-y="0"
     inkscape:window-maximized="1"
     inkscape:current-layer="layer1">
    <inkscape:grid
       type="xygrid"
       id="grid2865" />
  </sodipodi:namedview>
  <defs
     id="defs2">
    <inkscape:perspective
       sodipodi:type="inkscape:persp3d"
       inkscape:vp_x="0 : 50 : 1"
       inkscape:vp_y="0 : 1000 : 0"
       inkscape:vp_z="100 : 50 : 1"
       inkscape:persp3d-origin="50 : 33.333333 : 1"
       id="perspective5340" />
  </defs>
  <g
     inkscape:label="Layer 1"
     inkscape:groupmode="layer"
     id="layer1">
    <path
       id="path13817"
       style="fill:#f16c00;stroke-width:10;fill-opacity:1"
       d="m 88.15059,38.241912 c 1.767402,5.650724 1.513313,11.354806 1.515831,16.912134 0.0069,15.133555 2.336145,24.776064 -0.602871,33.38026 -0.492324,1.441316 -5.723478,3.539125 -7.644869,-0.761092 -2.352881,-5.265926 -0.189142,-11.992083 -3.726146,-12.97843 -2.973034,-0.829075 -4.642549,-1.260416 -5.112391,1.20877 -1.023113,5.376824 -0.710711,11.141396 -2.582118,13.948822 -1.957218,2.936158 -8.166896,0.779793 -10.080245,-0.898515 -2.506845,-2.198897 -1.21616,-9.926219 -2.556428,-14.270833 -1.124196,-3.644195 -7.854711,-4.193475 -9.436972,-1.222308 -0.47283,0.887879 0.333885,11.994066 -2.290372,15.454986 -2.118493,2.793911 -9.405398,1.715352 -11.063222,-1.329673 -2.447128,-4.494787 -1.363356,-12.970912 -3.705806,-13.858929 -3.13367,-1.187966 -1.401567,-0.653252 -8.735797,1.188951 -3.165479,0.795101 -0.388082,11.558173 -2.213607,14.109383 -0.860913,1.203144 -6.864673,2.564149 -8.926338,-3.197779 C 9.9983419,83.158306 10.528036,56.442006 10.279775,53.627516 8.6674062,35.348351 19.89767,17.771464 38.127833,12.0641 46.669214,9.3900281 55.434158,9.7326425 63.274037,12.49111 74.743495,16.526648 84.233072,25.732745 88.146273,38.228118 L 50.05386,50.157593 Z"
       sodipodi:nodetypes="cssssssssssssssssssccc" />
    <path
       style="fill:#ffffff;fill-opacity:1;stroke-width:10"
       id="path14682-9"
       sodipodi:type="arc"
       sodipodi:cx="64.199112"
       sodipodi:cy="36.041782"
       sodipodi:rx="10.931968"
       sodipodi:ry="10.931968"
       sodipodi:start="5.9800505"
       sodipodi:end="5.9796884"
       sodipodi:arc-type="slice"
       d="M 74.632641,32.778442 A 10.931968,10.931968 0 0 1 67.463397,46.475016 10.931968,10.931968 0 0 1 53.766174,39.307012 10.931968,10.931968 0 0 1 60.932938,25.60914 10.931968,10.931968 0 0 1 74.631459,32.774664 l -10.432347,3.267118 z" />
    <path
       style="fill:#0000ff;fill-opacity:1;stroke-width:10"
       id="path14684-2"
       sodipodi:type="arc"
       sodipodi:cx="64.174232"
       sodipodi:cy="38.177784"
       sodipodi:rx="7.4334154"
       sodipodi:ry="7.4334154"
       sodipodi:start="5.9800505"
       sodipodi:end="5.9796884"
       sodipodi:arc-type="slice"
       d="m 71.268724,35.958809 a 7.4334154,7.4334154 0 0 1 -4.874874,9.313266 7.4334154,7.4334154 0 0 1 -9.313707,-4.874031 7.4334154,7.4334154 0 0 1 4.873188,-9.314149 7.4334154,7.4334154 0 0 1 9.314589,4.872345 l -7.093688,2.221544 z" />
    <path
       style="fill:#ffffff;fill-opacity:1;stroke-width:10"
       id="path14682-7"
       sodipodi:type="arc"
       sodipodi:cx="36.381718"
       sodipodi:cy="36.090141"
       sodipodi:rx="10.931968"
       sodipodi:ry="10.931968"
       sodipodi:start="5.9800505"
       sodipodi:end="5.9796884"
       sodipodi:arc-type="slice"
       d="M 46.815247,32.826801 A 10.931968,10.931968 0 0 1 39.646003,46.523375 10.931968,10.931968 0 0 1 25.94878,39.355371 10.931968,10.931968 0 0 1 33.115544,25.657499 10.931968,10.931968 0 0 1 46.814064,32.823023 L 36.381718,36.090141 Z" />
    <path
       style="fill:#0000ff;fill-opacity:1;stroke-width:10"
       id="path14684-5"
       sodipodi:type="arc"
       sodipodi:cx="36.356834"
       sodipodi:cy="38.226143"
       sodipodi:rx="7.4334154"
       sodipodi:ry="7.4334154"
       sodipodi:start="5.9800505"
       sodipodi:end="5.9796884"
       sodipodi:arc-type="slice"
       d="m 43.451326,36.007168 a 7.4334154,7.4334154 0 0 1 -4.874874,9.313266 7.4334154,7.4334154 0 0 1 -9.313708,-4.874032 7.4334154,7.4334154 0 0 1 4.873189,-9.314148 7.4334154,7.4334154 0 0 1 9.314589,4.872345 l -7.093688,2.221544 z" />
  </g>
</svg>

<svg width="100" height="100" xmlns="http://www.w3.org/2000/svg"><path d="M88.15 38.242c1.768 5.65 1.514 11.355 1.516 16.912.007 15.134 2.337 24.776-.602 33.38-.493 1.442-5.724 3.54-7.645-.76-2.353-5.267-.19-11.993-3.726-12.98-2.973-.828-4.643-1.26-5.113 1.21-1.023 5.376-.71 11.14-2.582 13.948-1.957 2.937-8.167.78-10.08-.898-2.507-2.199-1.216-9.926-2.557-14.271-1.124-3.644-7.854-4.193-9.437-1.222-.472.888.334 11.994-2.29 15.455-2.118 2.794-9.405 1.715-11.063-1.33-2.447-4.495-1.364-12.97-3.706-13.859-3.134-1.188-1.402-.653-8.736 1.19-3.165.794-.388 11.557-2.213 14.108-.861 1.204-6.865 2.565-8.927-3.197-.99-2.77-.461-29.486-.71-32.3-1.612-18.28 9.619-35.857 27.849-41.564a39.74 39.74 0 0 1 25.146.427c11.47 4.036 20.96 13.242 24.872 25.737l-38.092 11.93z" fill="#f16c00"/><path d="M74.633 32.778a10.932 10.932 0 0 1-7.17 13.697 10.932 10.932 0 0 1-13.697-7.168 10.932 10.932 0 0 1 7.167-13.698 10.932 10.932 0 0 1 13.698 7.166L64.2 36.042z" fill="#fff"/><path d="M71.269 35.959a7.433 7.433 0 0 1-4.875 9.313 7.433 7.433 0 0 1-9.314-4.874 7.433 7.433 0 0 1 4.873-9.314 7.433 7.433 0 0 1 9.315 4.872l-7.094 2.222z" fill="#00f"/><path d="M46.815 32.827a10.932 10.932 0 0 1-7.169 13.696 10.932 10.932 0 0 1-13.697-7.168 10.932 10.932 0 0 1 7.167-13.698 10.932 10.932 0 0 1 13.698 7.166L36.382 36.09z" fill="#fff"/><path d="M43.451 36.007a7.433 7.433 0 0 1-4.875 9.313 7.433 7.433 0 0 1-9.313-4.874 7.433 7.433 0 0 1 4.873-9.314 7.433 7.433 0 0 1 9.315 4.873l-7.094 2.221z" fill="#00f"/></svg>
